!!!!SEGMENT: pl-kk--kk-i-14--013_anonim--sub-tuum-praesidium.krn
!!!cenid: 17xx:2201
!!!COM: Anonim
!!!COM-rismID: pe30004985
!!!CDT:
!!!CNT:
!!!OTL: Sub tuum praesidium
!!!PDT:
!!!AGN: Sacred
!!!SMS-siglum: PL-Kk
!!!SMS-shelfmark: Kk.I.14
!!!SMS-shelfwork: 013 W
!!!SMS-variant:
!!!SMS-altvar:
!!!NIFC-rismSourceID: 1001154407
!!!NIFC-islandoraID: pl-kk:2607
!!!URL-pdf-islandora: https://repozytorium.nifc.pl/islandora/object/pl-kk%3A2607/datastream/PDF/view
!!!URL-scan: https://polish.musicsources.pl/pl/lokalizacje/galeria/rekopisy/5768 @EN{Scan on Polish Music Sources Website} @PL{Skany w portalu Dziedzictwo Muzyki Polskiej w otwartym dostępie}
!!!ONB-nifc: UWAGA: T (skan 0008 na dole, brak zakończenia), B (0020-0021). Następny utwór w księdze B: Magnificet te Domine
!!!AIN: 1 empty 1 tenor
!!!key:
**kern	**text	**dynam	**kern	**text
*part2	*part2	*part2	*part1	*part1
*staff2	*staff2	*	*staff1	*staff1
*Iempty	*	*	*Itenor	*
*I"[Baſsus]	*	*	*I"[Tenore]	*
*I'[B]	*	*	*I'[T]	*
*clefC4	*	*	*clefC1	*
*k[]	*	*	*k[]	*
*a:	*	*	*a:	*
*M2/1	*	*	*M2/1	*
*met(c|)	*	*	*met(c|)	*
=1-	=1-	=1-	=1-	=1-
0r	.	.	00r	.
=2-	=2-	=2-	=2-	=2-
1.A	Sub	.	.	.
!LO:TX:t=P:problem=kreska pseudotaktowa	!	!	!	!
2A/	tu-	.	.	.
=3-	=3-	=3-	=3-	=3-
!LO:TX:a:t=P:problem=# above	!	!	!	!
2G#X/	-um	.	0r	.
2E/	prae-	.	.	.
2.A/	-ſi-	.	.	.
!LO:TX:t=P:problem=kreska pseudotaktowa	!	!	!	!
4A/	-di-	.	.	.
=4-	=4-	=4-	=4-	=4-
2A/	-u(m)	.	1.a	Sub
2c\	prae-	.	.	.
2.d\	-ſi-	.	.	.
.	.	.	2a\	tu-
4d\	-di-	.	.	.
=5-	=5-	=5-	=5-	=5-
!LO:TX:t=P:problem=kreska pseudotaktowa	!	!	!	!
1B	-u(m)	.	2g#X/	-um
.	.	.	2e/	prae-
2.d\	Con-	.	1b	-si-
4d\	.	.	.	.
=6-	=6-	=6-	=6-	=6-
4c\	.	.	2.cc\	.
4B\	.	.	.	.
!LO:TX:t=P:problem=kreska pseudotaktowa	!	!	!	!
2A/	.	.	.	.
.	.	.	4b\	-di-
2d\	.	.	2a\	-um
2.c\	-fu-	.	2.ee\	Con-
=7-	=7-	=7-	=7-	=7-
.	.	.	.	.
4B\	-gi-	.	4dd\	.
!LO:TX:t=P:problem=kreska pseudotaktowa	!	!	!	!
2A/	-m(us)	.	4cc\	.
.	.	.	4b\	.
!LO:PB:g=original	!	!	!	!
2.d\	Con-	.	2a\	.
.	.	.	2.dd\	.
4c\	.	.	.	.
=8-	=8-	=8-	=8-	=8-
4B\	.	.	.	.
4A\	.	.	4cc\	.
4G/ny	.	.	4b\	.
4A/	.	.	4a\	.
4B\	.	.	4g#X/	.
4c\	.	.	4e/	.
!	!	!	!LO:TX:a:t=P:problem=# above	!
2d\	.	.	4f#X/	.
!	!	!	!LO:TX:a:t=P:problem=# above	!
.	.	.	4g#X/	.
=9-	=9-	=9-	=9-	=9-
4A/	.	.	4a\	.
4G#X/	.	.	4b\	.
4c\	.	.	4cc\	.
4B\	.	.	4dd\	.
2A/	fu-	.	2cc\	.
2G#X/	-gi-	.	4b\	-fu-
.	.	.	4b\	-gi-
!	!	!	!LO:LB:g=original	!
=10-	=10-	=10-	=10-	=10-
2A/	-m(us)	.	2a\	-m(us)
2r	.	.	2.ee\	San-
1r	.	.	.	.
.	.	.	4dd\	-cta
.	.	.	2cc\	De-
=11-	=11-	=11-	=11-	=11-
2r	.	.	2a\	-i
*	*	*	*	*ij
2.A/	S(an)-	.	4dd\	San-
.	.	.	4dd\	-cta
.	.	.	4cc#X\	De-
4G/ny	-cta	.	4cc#\	-i
*	*	*	*	*Xij
4F/	De-	.	1dd\	ge-
4D/	-i	.	.	.
=12-	=12-	=12-	=12-	=12-
2.A/	Ge-	.	.	.
.	.	.	2cc#X\	-ni-
4A/	-ni-	.	.	.
2A/	-trix	.	2dd\	-trix
2r	.	.	2b\	ne
=13-	=13-	=13-	=13-	=13-
2rc	.	.	2cc\ny	ne
1c	noſ-	.	2b\	deſ-
.	.	.	2.dd\	-pi-
2B\	-straſ	.	.	.
.	.	.	4dd\	-ci-
=14-	=14-	=14-	=14-	=14-
2c\	de-	.	2g/ny	-as
2A/	-pre-	.	1r	.
!LO:LB:g=original	!	!	!	!
4B\	-ca-	.	.	.
4B\	-ti-	.	.	.
2c\	-o-	.	1cc\	hoſ-
=15-	=15-	=15-	=15-	=15-
1d	.	.	.	.
.	.	.	2b\	-ti-
!LO:N:vis=1	!	!	!	!
2e\	nes	.	2.cc\	-aſ
00r	.	.	.	.
.	.	.	4cc\	de-
=16-	=16-	=16-	=16-	=16-
.	.	.	4a\	-pre-
.	.	.	4b\	-ca-
.	.	.	1cc	-ti-
.	.	.	2b\	-o-
!	!	!	!LO:LB:g=original	!
=17-	=17-	=17-	=17-	=17-
.	.	.	2cc\	-neſ
.	.	.	2b\	ne
.	.	.	2cc\	deſ-
2r	.	.	2a\	-pi-
=18-	=18-	=18-	=18-	=18-
2B\	ne	.	2.dd\	-ci-
2c\	ne	.	.	.
.	.	.	4dd\	-as
2A/	de-	.	2g/	ne
2.d\	-spi-	.	4cc\	deſ-
.	.	.	4b\	.
=19-	=19-	=19-	=19-	=19-
.	.	.	2.a\	-pi-
4d\	-ci-	.	.	.
2G/	-as	.	.	.
.	.	.	4a\	-ci-
2G/	ne	.	2b\	-as
*	*	*	*	*ij
2A/	ne	.	1cc\	ne
=20-	=20-	=20-	=20-	=20-
1.c	de-	.	.	.
.	.	.	2ff\	deſ-
.	.	.	2.dd\	-pi-
4B\	-spi-	.	.	.
4B\	-ci-	.	4dd\	-ci-
=21-	=21-	=21-	=21-	=21-
1c	-as	.	0cc	-as
*	*	*	*	*Xij
2r	.	.	.	.
1e\	in	.	.	.
=22-	=22-	=22-	=22-	=22-
.	.	.	00r	.
2e\	ne-	.	.	.
2c\	-ceſ-	.	.	.
2A/	-si-	.	.	.
=23-	=23-	=23-	=23-	=23-
2B\	-ta-	.	.	.
2c\	.	.	.	.
!LO:LB:g=original	!	!	!	!
4c\	.	.	.	.
4c\	-ti-	.	.	.
1B\	-bus	.	.	.
=24-	=24-	=24-	=24-	=24-
!	!	!	!LO:TX:a:t=P:problem=tekst nieczytelny	!
.	.	.	2ee\	.
1A	no-	.	2ee\	.
.	.	.	2dd\	.
2G#X/	.	.	2b\	.
=25-	=25-	=25-	=25-	=25-
4A\	.	.	2.cc\	.
4B\	.	.	.	.
4c\	.	.	.	.
4d\	.	.	4b\	.
2e\	.	.	2a\	.
4d\	.	.	1a\	.
4c\	.	.	.	.
=26-	=26-	=26-	=26-	=26-
1B	.	.	.	.
!	!	!	!LO:TX:a:t=P:problem=# above	!
.	.	.	2g#X/	.
1c#X	-stris	.	1a	.
=27-	=27-	=27-	=27-	=27-
*M3/4	*	*	*M3/4	*
!	!	!	!LO:TX:a:t=P:problem=brak zakończenia	!
4c#X\	Sed	.	2.ryy	.
4c#\	a	.	.	.
4c#\	pe-	.	.	.
=28-	=28-	=28-	=28-	=28-
4.d\	-ri-	.	2.ryy	.
8d\	-cu-	.	.	.
4d\	-lis	.	.	.
=29-	=29-	=29-	=29-	=29-
2B\	Cun-	.	2.ryy	.
4B\	-ctis	.	.	.
=30-	=30-	=30-	=30-	=30-
4.c\ny	li-	.	2.ryy	.
8c\	-be-	.	.	.
8d\	-ra	.	.	.
8d\	n(os)	.	.	.
!LO:LB:g=original	!	!	!	!
=31-	=31-	=31-	=31-	=31-
2e\	sem-	.	2.ryy	.
4e\	-per	.	.	.
=32-	=32-	=32-	=32-	=32-
4r	.	.	2.ryy	.
4e\	sem-	.	.	.
4d\	-p(er)	.	.	.
=33-	=33-	=33-	=33-	=33-
*	*ij	*	*	*
2e\	sem-	.	2.ryy	.
4d\	-p(er)	.	.	.
=34-	=34-	=34-	=34-	=34-
4r	.	.	2.ryy	.
4c\	sem-	.	.	.
4B\	-p(er)	.	.	.
=35-	=35-	=35-	=35-	=35-
2A/	sem-	.	2.ryy	.
4G#X/	-p(er)	.	.	.
*	*Xij	*	*	*
=36-	=36-	=36-	=36-	=36-
!	!	!LO:DY:a:t=Forte	!	!
4.c\	li-	f	2.ryy	.
8c\	-be-	.	.	.
8c\	-ra	.	.	.
8c\	nos	.	.	.
=37-	=37-	=37-	=37-	=37-
2c\	sem-	.	2.ryy	.
4c\	-p(er)	.	.	.
=38-	=38-	=38-	=38-	=38-
4.c\	Vir-	.	2.ryy	.
8c\	-go	.	.	.
8B\	glo-	.	.	.
8A/	-ri-	.	.	.
=39-	=39-	=39-	=39-	=39-
8G/Lny	-o-	.	2.ryy	.
8F/	.	.	.	.
8G/	.	.	.	.
8A/J	.	.	.	.
8B\L	.	.	.	.
8c\J	.	.	.	.
=40-	=40-	=40-	=40-	=40-
2d\	.	.	2.ryy	.
4d\	-sa	.	.	.
!LO:LB:g=original	!	!	!	!
=41-	=41-	=41-	=41-	=41-
*	*ij	*	*	*
4.f\	vir-	.	2.ryy	.
8f\	-go	.	.	.
8e\	glo-	.	.	.
8d\	-ri-	.	.	.
=42-	=42-	=42-	=42-	=42-
4c#X\	-o-	.	2.ryy	.
8c#\	-sa	.	.	.
*	*Xij	*	*	*
8c#\	et	.	.	.
4.d\	be-	.	.	.
=43-	=43-	=43-	=43-	=43-
.	.	.	2.ryy	.
8d\	-ne-	.	.	.
4d\	-dic-	.	.	.
!LO:TX:a:t=P:problem=# above	!	!	!	!
4c#X\	.	.	.	.
=44-	=44-	=44-	=44-	=44-
2d\	-ta	.	2.ryy	.
4r	.	.	.	.
=45-	=45-	=45-	=45-	=45-
2.r	.	.	2.ryy	.
=46-	=46-	=46-	=46-	=46-
4.c\ny	Vir-	.	2.ryy	.
8c\	-go	.	.	.
8B\	glo-	.	.	.
8A\	-ri-	.	.	.
=47-	=47-	=47-	=47-	=47-
4G#X/	-o-	.	2.ryy	.
8G#/	-sa	.	.	.
8G#/	et	.	.	.
4.A/	be-	.	.	.
=48-	=48-	=48-	=48-	=48-
.	.	.	2.ryy	.
8A/	-ne-	.	.	.
4A/	-dic-	.	.	.
4G#X/	-ta	.	.	.
=49-	=49-	=49-	=49-	=49-
4A\	be-	.	2.ryy	.
4c\	-ne-	.	.	.
4B\	-dic-	.	.	.
=50-	=50-	=50-	=50-	=50-
2.c\	-ta	.	2.ryy	.
=-	=-	=-	=-	=-
*-	*-	*-	*-	*-
!!!system-decoration: s1,s2
!!!EED: Antoni Szymański
!!!EEV: 2021-07-18
!!!ENC: Berenika Jozajtis
!!!END: 2021-07-01
